svg/emoji_u1f69a.svg

<svg enable-background="new 0 0 128 128" viewBox="0 0 128 128" xmlns="http://www.w3.org/2000/svg"><linearGradient id="b" x1="64.039" x2="64.039" y1="39" y2="101.26" gradientUnits="userSpaceOnUse"><stop stop-color="#FFF8E1" offset=".0074201"/><stop stop-color="#FFF6DA" offset=".1774"/><stop stop-color="#FFF2C8" offset=".4164"/><stop stop-color="#FFEAAA" offset=".6962"/><stop stop-color="#FFE082" offset=".9948"/></linearGradient><path d="M124.19,53.28c0-5.11-4.18-9.28-9.28-9.28H17.33c-5.11,0-9.28,4.18-9.28,9.28L3.88,91.5 h120.31V53.28z" fill="url(#b)"/><path d="M3.88,91.5v11.22c0,5.11,4.18,9.28,9.28,9.28h101.74c5.11,0,9.28-4.18,9.28-9.28V91.5H3.88z" fill="#66BB6A"/><g opacity=".2"><path d="m18.41 47 97.5 0.5c3.45 0 5.49 2.12 5.49 5.51l-0.4 38.49v10.79c0 3.84-3.32 6.64-5.1 6.64l-101.74 0.11c-6.05 0-7.3-3.81-7.3-6.99l0.04-10.63 4.13-38.09 0.02-0.1c0.37-5.15 4.21-6.23 7.36-6.23m0.01-3c-5.62 0-9.92 2.92-10.36 9l-4.15 38.25-0.03 10.79c0 5.11 2.82 10 10.32 10l101.69-0.11c3.58 0 8.1-4.27 8.1-9.64v-10.79l0.4-38.47c0-5.11-3.44-8.53-8.54-8.53l-97.43-0.5z" fill="#424242"/></g><path d="m29.9 75.34h-14.59c-1.65 0-2.85-1.31-2.67-2.92l1.75-15.51c0.18-1.61 1.67-2.92 3.33-2.92h12.93c1.65 0 2.85 1.31 2.67 2.92l-0.1 15.51c-0.18 1.62-1.67 2.92-3.32 2.92z" fill="#546E7A"/><linearGradient id="a" x1="80.097" x2="80.097" y1="29.333" y2="90.334" gradientUnits="userSpaceOnUse"><stop stop-color="#BCAAA4" offset=".0048889"/><stop stop-color="#AC958E" offset=".3916"/><stop stop-color="#8D6E63" offset=".9986"/></linearGradient><path d="M124.19,91.65H36v-59.3c0-2.21,1.79-4,4-4h80.19c2.21,0,4,1.79,4,4V91.65z" fill="url(#a)"/><g opacity=".2"><path d="m30.65 56c0.24 0 0.43 0.07 0.55 0.21 0.11 0.12 0.15 0.28 0.13 0.48-0.01 0.07-0.01 0.14-0.01 0.21l-0.1 15.38c-0.11 0.57-0.72 1.06-1.33 1.06h-14.58c-0.24 0-0.43-0.07-0.55-0.21-0.11-0.12-0.15-0.28-0.13-0.48l1.75-15.51c0.07-0.6 0.71-1.14 1.34-1.14h12.93m0-2h-12.93c-1.65 0-3.14 1.31-3.33 2.92l-1.75 15.51c-0.18 1.61 1.01 2.92 2.67 2.92h14.59c1.65 0 3.14-1.31 3.33-2.92l0.1-15.51c0.17-1.61-1.02-2.92-2.68-2.92z" fill="#424242"/></g><rect x="76.33" y="28.35" width="11.29" height="23.65" fill="#6D4C41"/><rect x="76.33" y="68.84" width="11.29" height="22.81" fill="#6D4C41"/><g opacity=".2"><path d="m120.19 31.35c0.55 0 1 0.45 1 1v56.3h-82.19v-56.3c0-0.55 0.45-1 1-1h80.19m0-3h-80.19c-2.21 0-4 1.79-4 4v59.3h88.19v-59.3c0-2.21-1.79-4-4-4z" fill="#424242"/></g><circle cx="30" cy="110" r="14" fill="#4E342E"/><g opacity=".2"><path d="m30 98c6.62 0 12 5.38 12 12s-5.38 12-12 12-12-5.38-12-12 5.38-12 12-12m0-2c-7.73 0-14 6.27-14 14s6.27 14 14 14 14-6.27 14-14-6.27-14-14-14z" fill="#eee"/></g><circle cx="30" cy="110" r="6" fill="#BDBDBD"/><circle cx="102" cy="110" r="14" fill="#4E342E"/><g opacity=".2"><path d="m102 98c6.62 0 12 5.38 12 12s-5.38 12-12 12-12-5.38-12-12 5.38-12 12-12m0-2c-7.73 0-14 6.27-14 14s6.27 14 14 14 14-6.27 14-14-6.27-14-14-14z" fill="#eee"/></g><circle cx="102" cy="110" r="6" fill="#BDBDBD"/></svg>

<svg width="128" height="128" style="enable-background:new 0 0 128 128;" xmlns="http://www.w3.org/2000/svg" xmlns:xlink="http://www.w3.org/1999/xlink">
  <linearGradient id="SVGID_1_" gradientUnits="userSpaceOnUse" x1="64.0392" x2="64.0392" y1="39" y2="101.2587">
    <stop offset="7.420095e-03" style="stop-color:#FFF8E1"/>
    <stop offset="0.1774" style="stop-color:#FFF6DA"/>
    <stop offset="0.4164" style="stop-color:#FFF2C8"/>
    <stop offset="0.6962" style="stop-color:#FFEAAA"/>
    <stop offset="0.9948" style="stop-color:#FFE082"/>
  </linearGradient>
  <path d="M124.19,53.28c0-5.11-4.18-9.28-9.28-9.28H17.33c-5.11,0-9.28,4.18-9.28,9.28L3.88,91.5 h120.31V53.28z" style="fill:url(#SVGID_1_);"/>
  <path d="M3.88,91.5v11.22c0,5.11,4.18,9.28,9.28,9.28h101.74c5.11,0,9.28-4.18,9.28-9.28V91.5H3.88z" style="fill:#66BB6A;"/>
  <g style="opacity:0.2;">
    <path d="M18.41,47l97.5,0.5c3.45,0,5.49,2.12,5.49,5.51L121,91.5v10.79c0,3.84-3.32,6.64-5.1,6.64 l-101.74,0.11c-6.05,0-7.3-3.81-7.3-6.99L6.9,91.42l4.13-38.09l0.01-0.05l0.01-0.05C11.42,48.08,15.26,47,18.41,47 M18.42,44 c-5.62,0-9.92,2.92-10.36,9L3.91,91.25l-0.03,10.79c0,5.11,2.82,10,10.32,10l101.69-0.11c3.58,0,8.1-4.27,8.1-9.64V91.5l0.4-38.47 c0-5.11-3.44-8.53-8.54-8.53L18.42,44L18.42,44z" style="fill:#424242;"/>
  </g>
  <path d="M29.9,75.34H15.31c-1.65,0-2.85-1.31-2.67-2.92l1.75-15.51c0.18-1.61,1.67-2.92,3.33-2.92h12.93 c1.65,0,2.85,1.31,2.67,2.92l-0.1,15.51C33.04,74.04,31.55,75.34,29.9,75.34z" style="fill:#546E7A;"/>
  <linearGradient id="SVGID_2_" gradientUnits="userSpaceOnUse" x1="80.0967" x2="80.0967" y1="29.3333" y2="90.3342">
    <stop offset="4.888891e-03" style="stop-color:#BCAAA4"/>
    <stop offset="0.3916" style="stop-color:#AC958E"/>
    <stop offset="0.9986" style="stop-color:#8D6E63"/>
  </linearGradient>
  <path d="M124.19,91.65H36v-59.3c0-2.21,1.79-4,4-4h80.19c2.21,0,4,1.79,4,4V91.65z" style="fill:url(#SVGID_2_);"/>
  <g style="opacity:0.2;">
    <path d="M30.65,56c0.24,0,0.43,0.07,0.55,0.21c0.11,0.12,0.15,0.28,0.13,0.48 c-0.01,0.07-0.01,0.14-0.01,0.21l-0.1,15.38c-0.11,0.57-0.72,1.06-1.33,1.06H15.31c-0.24,0-0.43-0.07-0.55-0.21 c-0.11-0.12-0.15-0.28-0.13-0.48l1.75-15.51c0.07-0.6,0.71-1.14,1.34-1.14H30.65 M30.65,54H17.72c-1.65,0-3.14,1.31-3.33,2.92 l-1.75,15.51c-0.18,1.61,1.01,2.92,2.67,2.92H29.9c1.65,0,3.14-1.31,3.33-2.92l0.1-15.51C33.5,55.31,32.31,54,30.65,54L30.65,54z" style="fill:#424242;"/>
  </g>
  <rect height="23.65" style="fill:#6D4C41;" width="11.29" x="76.33" y="28.35"/>
  <rect height="22.81" style="fill:#6D4C41;" width="11.29" x="76.33" y="68.84"/>
  <g style="opacity:0.2;">
    <path d="M120.19,31.35c0.55,0,1,0.45,1,1v56.3H39v-56.3c0-0.55,0.45-1,1-1H120.19 M120.19,28.35H40 c-2.21,0-4,1.79-4,4v59.3h88.19v-59.3C124.19,30.14,122.4,28.35,120.19,28.35L120.19,28.35z" style="fill:#424242;"/>
  </g>
  <g>
    <g>
      <circle cx="30" cy="110" r="14" style="fill:#4E342E;"/>
      <g style="opacity:0.2;">
        <path d="M30,98c6.62,0,12,5.38,12,12s-5.38,12-12,12s-12-5.38-12-12S23.38,98,30,98 M30,96 c-7.73,0-14,6.27-14,14s6.27,14,14,14s14-6.27,14-14S37.73,96,30,96L30,96z" style="fill:#EEEEEE;"/>
      </g>
    </g>
    <circle cx="30" cy="110" r="6" style="fill:#BDBDBD;"/>
  </g>
  <g>
    <g>
      <circle cx="102" cy="110" r="14" style="fill:#4E342E;"/>
      <g style="opacity:0.2;">
        <path d="M102,98c6.62,0,12,5.38,12,12s-5.38,12-12,12s-12-5.38-12-12S95.38,98,102,98 M102,96 c-7.73,0-14,6.27-14,14s6.27,14,14,14s14-6.27,14-14S109.73,96,102,96L102,96z" style="fill:#EEEEEE;"/>
      </g>
    </g>
    <circle cx="102" cy="110" r="6" style="fill:#BDBDBD;"/>
  </g>
</svg>
